javascript.info/7-animation/3-js-animation/bounce-inout.svg

<?xml version="1.0" encoding="UTF-8"?>
<svg width="234px" height="240px" viewBox="0 0 234 240" version="1.1" xmlns="http://www.w3.org/2000/svg" xmlns:xlink="http://www.w3.org/1999/xlink">
    <!-- Generator: sketchtool 55.2 (78181) - https://sketchapp.com -->
    <title>bounce-inout.svg</title>
    <desc>Created with sketchtool.</desc>
    <g id="animation" stroke="none" stroke-width="1" fill="none" fill-rule="evenodd">
        <g id="bounce-inout.svg">
            <path id="Line" d="M35,36.1600037 L35,210.5 L33,210.5 L33,36.1600037 L27,36.1600037 L34,22.1600037 L41,36.1600037 L35,36.1600037 Z" fill="#E8C48E" fill-rule="nonzero"></path>
            <path id="Line" d="M194.509995,195 L23.5,195 L23.5,193 L194.509995,193 L194.509995,187 L208.509995,194 L194.509995,201 L194.509995,195 Z" fill="#E8C48E" fill-rule="nonzero"></path>
            <path d="M35.3289777,193.635841 C35.3289777,193.635841 41.2333124,187.095281 52.2325098,193.635839 C55.4414764,183.659866 71.0514816,178.107189 80.7686063,193.635839 C89.032676,167.620814 117,110.452183 144.182478,194.552328 C148.063747,176.586161 175.037321,10.6423763 208.465749,22.4456533" id="Path-747" stroke="#EE6B47" stroke-width="3" stroke-linejoin="bevel"></path>
            <text id="0" font-family="PTMono-Bold, PT Mono" font-size="14" font-weight="bold" fill="#8A704D">
                <tspan x="17" y="212">0</tspan>
            </text>
            <text id="1" font-family="PTMono-Bold, PT Mono" font-size="14" font-weight="bold" fill="#8A704D">
                <tspan x="17" y="36">1</tspan>
            </text>
            <text id="-2" font-family="PTMono-Bold, PT Mono" font-size="14" font-weight="bold" fill="#8A704D">
                <tspan x="200" y="212">1</tspan>
            </text>
            <path d="M35.4840461,192.776816 C53.45735,186.177656 69.3490979,170.128038 97.137513,18.4980531 C102.051415,32.4334475 112.013077,63.0795933 127.058929,63.996791 C142.104781,64.9139886 156.560556,31.0473534 160.222221,20.3348259 C166.618848,28.1959597 165.111566,31.4251632 174.958382,31.425163 C184.805198,31.4251628 190.347191,21.8729943 191.581215,20.6199652 C193.7855,22.5969315 202.177314,24.4036062 206.959731,21.4508296" id="Path-770" stroke="#62C0DC" stroke-width="3" stroke-linejoin="bevel"></path>
        </g>
    </g>
</svg>

<svg xmlns="http://www.w3.org/2000/svg" width="234" height="240" viewBox="0 0 234 240"><defs><style>@import url(https://fonts.googleapis.com/css?family=Open+Sans:bold,italic,bolditalic%7CPT+Mono);@font-face{font-family:&apos;PT Mono&apos;;font-weight:700;font-style:normal;src:local(&apos;PT MonoBold&apos;),url(/pack/modules/styles/blocks/font/PTMonoBold.woff2) format(&apos;woff2&apos;),url(/pack/modules/styles/blocks/font/PTMonoBold.woff) format(&apos;woff&apos;),url(/pack/modules/styles/blocks/font/PTMonoBold.ttf) format(&apos;truetype&apos;)}</style></defs><g id="animation" fill="none" fill-rule="evenodd" stroke="none" stroke-width="1"><g id="bounce-inout.svg"><path id="Line" fill="#E8C48E" fill-rule="nonzero" d="M35 36.16V210.5h-2V36.16h-6l7-14 7 14h-6z"/><path id="Line" fill="#E8C48E" fill-rule="nonzero" d="M194.51 195H23.5v-2h171.01v-6l14 7-14 7v-6z"/><path id="Path-747" stroke="#EE6B47" stroke-linejoin="bevel" stroke-width="3" d="M35.329 193.636s5.904-6.54 16.904 0c3.208-9.976 18.818-15.529 28.536 0 8.264-26.015 36.231-83.184 63.413.916 3.882-17.966 30.855-183.91 64.284-172.106"/><text id="0" fill="#8A704D" font-family="PTMono-Bold, PT Mono" font-size="14" font-weight="bold"><tspan x="17" y="212">0</tspan></text><text id="1" fill="#8A704D" font-family="PTMono-Bold, PT Mono" font-size="14" font-weight="bold"><tspan x="17" y="36">1</tspan></text><text id="-2" fill="#8A704D" font-family="PTMono-Bold, PT Mono" font-size="14" font-weight="bold"><tspan x="200" y="212">1</tspan></text><path id="Path-770" stroke="#62C0DC" stroke-linejoin="bevel" stroke-width="3" d="M35.484 192.777c17.973-6.6 33.865-22.649 61.654-174.279 4.913 13.935 14.875 44.582 29.92 45.499 15.047.917 29.503-32.95 33.164-43.662 6.397 7.861 4.89 11.09 14.736 11.09 9.847 0 15.39-9.552 16.623-10.805 2.205 1.977 10.596 3.784 15.379.83"/></g></g></svg>
